X: 1
T: Parikkalalainen   [Am]
O: Finland
Z: 2013 John Chambers <jc:trillian.mit.edu>
M: 2/4
L: 1/8
%Q: 1/4=126
K: Am
|: "Am"e2 a>a | a>e e>e | "Dm"g>f e>d | "E7"e2 e2 :|
|: "Am"ee e>d | e>c A>B | c>c "E7"B>B | "Am"A2 A2 :|
